src/images/circuits/russian.svg

<svg width="43" height="26" viewBox="0 0 43 26" fill="none" xmlns="http://www.w3.org/2000/svg">
<path d="M37.834 9.08042C38.1105 8.80546 40.7043 4.99456 42.0875 2.92768C42.2236 2.72431 42.15 2.44801 41.9311 2.33854L39.3281 1.03654C39.1547 0.949817 38.9442 0.997434 38.8251 1.15034L34.3793 6.85433C34.2504 7.01965 34.2682 7.25581 34.4204 7.39997L35.656 8.57054C35.798 8.70506 35.8242 8.92155 35.7184 9.08607L34.3025 11.2886C34.2643 11.3481 34.2112 11.3966 34.1484 11.4294L32.4944 12.2923C32.2927 12.3976 32.0439 12.317 31.9422 12.1135L30.995 10.2192C30.9052 10.0395 30.6985 9.95221 30.506 10.0096C29.504 10.3086 27.6234 10.7884 26.053 10.9192C23.8442 11.1033 21.2672 9.07855 16.2973 7.42191C12.491 6.15314 9.0558 7.42614 7.63913 8.31766C7.52594 8.38889 7.46052 8.51408 7.47258 8.64726C7.51526 9.11863 7.69645 9.92391 8.19821 10.5511C8.93449 11.4715 9.39466 14.2325 8.93449 15.429C8.58334 16.3419 4.63165 16.6018 2.43057 16.6238C2.24835 16.6257 2.08973 16.7466 2.04027 16.922L1.15864 20.0485C1.12868 20.1548 1.14317 20.2687 1.1988 20.364L3.49951 24.3085C3.60628 24.4915 3.83565 24.562 4.02679 24.4705L11.9385 20.6832C12.1543 20.5799 12.2351 20.3143 12.1176 20.1059C11.4105 18.8516 10.3412 16.672 10.4074 15.613C10.4994 14.1405 11.5115 12.2998 13.9964 12.1157C16.4814 11.9316 18.138 14.9688 19.2424 16.0732C20.126 16.9568 22.1265 16.5641 23.0163 16.2573C26.2988 15.3369 33.1031 13.3858 34.0603 12.944C35.2568 12.3918 37.4656 9.44669 37.834 9.08042Z" stroke="#FF0000" stroke-width="1.0113"/>
</svg>

<svg width="43" height="26" fill="none" xmlns="http://www.w3.org/2000/svg"><path d="M37.834 9.08c.276-.275 2.87-4.085 4.253-6.152a.406.406 0 0 0-.156-.59l-2.603-1.301a.407.407 0 0 0-.503.113L34.38 6.854a.407.407 0 0 0 .041.546l1.236 1.17a.407.407 0 0 1 .062.516l-1.416 2.203a.407.407 0 0 1-.154.14l-1.654.863a.407.407 0 0 1-.552-.178l-.947-1.895a.414.414 0 0 0-.489-.21c-1.002.3-2.883.78-4.453.91-2.209.184-4.786-1.84-9.756-3.497-3.806-1.269-7.241.004-8.658.896a.352.352 0 0 0-.166.33c.042.47.223 1.276.725 1.903.736.92 1.197 3.681.736 4.878-.35.913-4.302 1.173-6.503 1.195a.41.41 0 0 0-.39.298l-.882 3.127a.407.407 0 0 0 .04.315l2.3 3.944a.407.407 0 0 0 .528.163l7.911-3.788a.414.414 0 0 0 .18-.577c-.707-1.254-1.777-3.434-1.71-4.493.091-1.473 1.104-3.313 3.588-3.497 2.485-.184 4.142 2.853 5.246 3.957.884.884 2.884.491 3.774.184 3.283-.92 10.087-2.871 11.044-3.313 1.197-.552 3.406-3.497 3.774-3.864Z" stroke="red" stroke-width="1.011"/></svg>
